social/icons/352-min.svg

<svg xmlns="http://www.w3.org/2000/svg" viewBox="12 5 25 40"><path d="M 37 5 L 28.898438 5 L 25.199219 12 L 12 12 L 12 22 L 19.898438 22 L 12 37 L 12 45 L 20 45 L 23.699219 38 L 37 38 L 37 28 L 29 28 L 37 13 Z"/></svg>

<svg xmlns="http://www.w3.org/2000/svg" viewBox="12 5 25 40"><path d="M37 5h-8.102L25.2 12H12v10h7.898L12 37v8h8l3.7-7H37V28h-8l8-15Z"/></svg>
